apps/explorer/src/assets/img/discord.svg

<svg fill="none" height="16" viewBox="0 0 22 16" width="22" xmlns="http://www.w3.org/2000/svg"><path d="m18.4213 2.09374c-1.7776-1.428533-4.5884-1.670533-4.7072-1.6808-.0919-.007474-.1838.013684-.2631.060564-.0793.046881-.1421.117182-.1799.201237-.0029.005866-.1598.461269-.3116.900529 2.0658.36154 3.4694 1.1638 3.5442 1.2078.1399.08084.2491.20565.3107.35503s.0721.31493.0299.47089c-.0423.15596-.1349.29357-.2635.39142s-.2859.15045-.4475.1496c-.1291.00025-.2559-.03393-.3674-.099-.0205-.01247-2.0797-1.18434-4.7644-1.18434-2.6855 0-4.74543 1.1726-4.76597 1.18434-.16814.09783-.36825.12486-.55632.07514s-.34868-.1721-.44651-.34024-.12486-.36826-.07514-.55632c.04971-.18807.1721-.34869.34024-.44652.0748-.044 1.48353-.8492 3.5552-1.21-.15987-.4444-.3212-.892463-.32413-.898329-.03702-.084598-.09972-.155404-.17922-.20239-.07949-.046987-.17175-.067771-.26372-.059411-.1188.009534-2.92966.251534-4.73073 1.69987-.9416.86973-2.821869 5.95466-2.821869 10.35099-.000214.0775.020023.1536.058667.2207 1.298732 2.2807 4.839272 2.8776 5.645932 2.9033.0726.0023.14465-.0132.20994-.045s.12185-.079.1648-.1376l.87266-1.1821c-1.914-.4613-2.926-1.1866-2.98686-1.2313-.15527-.1155-.2586-.2876-.28748-.479-.02888-.1913.01904-.3863.1333-.5425.11427-.1561.28563-.2608.47673-.2912.1911-.0303.38647.0161.54351.1291.02714.0176 1.89494 1.3251 5.43547 1.3251 3.5545 0 5.4171-1.3126 5.4355-1.3258.1572-.1057.3493-.1465.5359-.1139.1866.0327.3534.1362.4655.289.112.1528.1607.343.1357.5308-.0249.1878-.1215.3587-.2696.4769-.0609.0448-1.0677.7686-2.9773 1.2298l.8616 1.1844c.0844.1158.2186.1833.3608.1833l.014-.0007c.8074-.0257 4.3479-.6226 5.6459-2.9033.0386-.0671.0589-.1433.0587-.2207 0-4.39563-1.8803-9.48056-2.8454-10.36936zm-10.35463 8.83956c-.81034 0-1.46667-.8206-1.46667-1.83329 0-1.01274.65633-1.83334 1.46667-1.83334.81033 0 1.46666.8206 1.46666 1.83334 0 1.01269-.65633 1.83329-1.46666 1.83329zm5.86663 0c-.8103 0-1.4666-.8206-1.4666-1.83329 0-1.01274.6563-1.83334 1.4666-1.83334.8104 0 1.4667.8206 1.4667 1.83334 0 1.01269-.6563 1.83329-1.4667 1.83329z" fill="#c5d9ed"/></svg>

<svg width="22" height="16" viewBox="0 0 22 16" fill="none" xmlns="http://www.w3.org/2000/svg">
<path d="M18.4213 2.09374C16.6437 0.665207 13.8329 0.423207 13.7141 0.41294C13.6222 0.405466 13.5303 0.426624 13.451 0.473504C13.3717 0.520385 13.3089 0.590686 13.2711 0.674741C13.2682 0.680607 13.1113 1.13601 12.9595 1.57527C15.0253 1.93681 16.4289 2.73907 16.5037 2.78307C16.6436 2.86391 16.7528 2.98872 16.8144 3.1381C16.876 3.28748 16.8865 3.45303 16.8443 3.60899C16.802 3.76495 16.7094 3.90256 16.5808 4.00041C16.4522 4.09826 16.2949 4.15086 16.1333 4.15001C16.0042 4.15026 15.8774 4.11608 15.7659 4.05101C15.7454 4.03854 13.6862 2.86667 11.0015 2.86667C8.316 2.86667 6.25607 4.03927 6.23553 4.05101C6.06739 4.14884 5.86728 4.17587 5.67921 4.12615C5.49114 4.07643 5.33053 3.95405 5.2327 3.78591C5.13487 3.61777 5.10784 3.41765 5.15756 3.22959C5.20727 3.04152 5.32966 2.8809 5.4978 2.78307C5.5726 2.73907 6.98133 1.93387 9.053 1.57307C8.89313 1.12867 8.7318 0.680607 8.72887 0.674741C8.69185 0.590143 8.62915 0.519337 8.54965 0.472351C8.47016 0.425364 8.3779 0.40458 8.28593 0.41294C8.16713 0.422474 5.35627 0.664474 3.5552 2.11281C2.6136 2.98254 0.733331 8.06747 0.733331 12.4638C0.733117 12.5413 0.753354 12.6174 0.791998 12.6845C2.09073 14.9652 5.63127 15.5621 6.43793 15.5878C6.51053 15.5901 6.58258 15.5746 6.64787 15.5428C6.71316 15.511 6.76972 15.4638 6.81267 15.4052L7.68533 14.2231C5.77133 13.7618 4.75933 13.0365 4.69847 12.9918C4.5432 12.8763 4.43987 12.7042 4.41099 12.5128C4.38211 12.3215 4.43003 12.1265 4.54429 11.9703C4.65856 11.8142 4.82992 11.7095 5.02102 11.6791C5.21212 11.6488 5.40749 11.6952 5.56453 11.8082C5.59167 11.8258 7.45947 13.1333 11 13.1333C14.5545 13.1333 16.4171 11.8207 16.4355 11.8075C16.5927 11.7018 16.7848 11.661 16.9714 11.6936C17.158 11.7263 17.3248 11.8298 17.4369 11.9826C17.5489 12.1354 17.5976 12.3256 17.5726 12.5134C17.5477 12.7012 17.4511 12.8721 17.303 12.9903C17.2421 13.0351 16.2353 13.7589 14.3257 14.2201L15.1873 15.4045C15.2717 15.5203 15.4059 15.5878 15.5481 15.5878L15.5621 15.5871C16.3695 15.5614 19.91 14.9645 21.208 12.6838C21.2466 12.6167 21.2669 12.5405 21.2667 12.4631C21.2667 8.06747 19.3864 2.98254 18.4213 2.09374V2.09374ZM8.06667 10.9333C7.25633 10.9333 6.6 10.1127 6.6 9.10001C6.6 8.08727 7.25633 7.26667 8.06667 7.26667C8.877 7.26667 9.53333 8.08727 9.53333 9.10001C9.53333 10.1127 8.877 10.9333 8.06667 10.9333ZM13.9333 10.9333C13.123 10.9333 12.4667 10.1127 12.4667 9.10001C12.4667 8.08727 13.123 7.26667 13.9333 7.26667C14.7437 7.26667 15.4 8.08727 15.4 9.10001C15.4 10.1127 14.7437 10.9333 13.9333 10.9333Z" fill="#C5D9ED"/>
</svg>
